X:1
T:Title
%%score { ( 1 3 ) | ( 2 4 ) }
L:1/8
M:4/4
K:C
V:1 treble nm="Grand Piano"
V:3 treble 
V:2 bass 
V:4 bass 
V:1
 z4 z2[Q:1/4=100] [EG]2 | [EG]3 [FA] [EG]2 E2 | A2 c2 c2 A2 | [EG]3 [FA] [EG]2 [CE]2 | %4
[M:3/4] [CE]2 [B,D]2 [B,D]2 |[M:1/4] [FG]2 |[M:4/4] [EG]3 [Ec] [Ge]2 [Gc]2 | d2 c2 A2 A2 | %8
 G2 [FG]2 [EG][Gc][Gc][Ad] |[M:7/8] z2 d2 z z2 |[M:1/4] GG |[M:4/4] d2 d2 B2 AB | %12
 [Ec]2 [Ec]2 [EG]2 [EG][EG] | [FA]2 [FA]2 [^FA][Fd][Fd][Fc] |[M:7/8] B2 c2 d3 |[M:1/4] GG | %16
[M:4/4] [Ge]2 [Ge]2 [Ec]2 [Gc][GB] | d2 c2 B2 AA | G2 [FG][FG] [EG][Gc][Gc][Ad] | %19
[M:7/8] z2 d2 z z2 |] %20
V:2
 z4 z2 [C,C]2 | [C,C]3 [C,C] [C,C]2 [C,G,C]2 | [F,C]2 [F,A,F]2 [F,A,F]2 [F,CF]2 | %3
 [C,C]3 [C,C] [C,C]2 [C,G,]2 |[M:3/4] [G,,G,]2 [G,,G,]2 [G,,G,]2 |[M:1/4] [G,B,]2 | %6
[M:4/4] [C,C]3 [C,C] [C,C]2 [E,C]2 | [F,A,F]2 [F,A,F]2 [F,CF]2 [F,CF]2 | %8
 [E,C]2 [D,B,]2 [C,C][E,C][E,C][F,C] |[M:7/8][K:treble] z2 G z[K:bass] z z2 | %10
[M:1/4][K:treble] G,G, |[M:4/4] [G,B,F]2 [G,B,F]2 [G,DF]2 [G,DF][G,DF] | %12
 [C,C]2 [C,C]2 [C,C]2 [C,C][C,C] | [F,C]2 [F,C]2 [D,D][D,A,][D,A,][D,D] | %14
[M:7/8][K:treble] [G,DG]2 [G,A,^F]2 [G,B,=F]3 |[M:1/4] [G,B,][G,B,] | %16
[M:4/4][K:bass] [C,C]2 [C,C]2 [C,G,]2 [E,C][E,C] | [F,A,F]2 [F,A,F]2 [F,B,G]2 [F,CF][F,CF] | %18
 [E,C]2 [D,B,][D,B,] [C,C][E,C][E,C][F,C] |[M:7/8][K:treble] z2 G z[K:bass] z z2 |] %20
V:3
 x8 | x8 | x8 | x8 |[M:3/4] x6 |[M:1/4] x2 |[M:4/4] x8 | x8 | x8 |[M:7/8] e2 z F [CEc]3 | %10
[M:1/4] x2 |[M:4/4] x8 | x8 | x8 |[M:7/8] x7 |[M:1/4] x2 |[M:4/4] x8 | x8 | x8 | %19
[M:7/8] e2 z F [Ec]3 |] %20
V:4
 x8 | x8 | x8 | x8 |[M:3/4] x6 |[M:1/4] x2 |[M:4/4] x8 | x8 | x8 | %9
[M:7/8][K:treble] [G,CG]2 [G,B,]2[K:bass] C,3 |[M:1/4][K:treble] x2 |[M:4/4] x8 | x8 | x8 | %14
[M:7/8][K:treble] x7 |[M:1/4] x2 |[M:4/4][K:bass] x8 | x8 | x8 | %19
[M:7/8][K:treble] [G,CG]2 [G,B,]2[K:bass] [C,C]3 |] %20

